X:213
T:Dunwich Heath
C:Charles Bolton, 1984
L:1/8
M:6/8
S:Colin Hume's website,  colinhume.com  - chords can also be printed below the stave.
Q:3/8=120
K:Bm
P:A
|: "G"G2B ded | "A"cBA cBA | "G"G2B ded | "Em"efg "Bm"fdB |\
"G"G2B ded | "A"cBA cde | "D"fgf "A"ecA | "A"cBA "Bm"B2A :|
P:B
|: "G"G2g dBd | "A"ecA ecA | "G"G2g dBd | "Em"efg "Bm"fdB |\
"G"G2g dBd | "A"ecA cde | "D"fgf "A"ecA |1,2"A"cBA "Bm"B2A :| "^LAST TIME" "A"cBA "B"B3 |]

